wordpress/wp-content/themes/bluearrow-2017/assets/images/logo-exove.svg

<?xml version="1.0" encoding="UTF-8"?>
<svg width="106px" height="26px" viewBox="0 0 106 26" version="1.1" xmlns="http://www.w3.org/2000/svg" xmlns:xlink="http://www.w3.org/1999/xlink">
    <!-- Generator: Sketch 41.2 (35397) - http://www.bohemiancoding.com/sketch -->
    <title>logo-exove</title>
    <desc>Created with Sketch.</desc>
    <defs></defs>
    <g id="export" stroke="none" stroke-width="1" fill="none" fill-rule="evenodd">
        <g id="logo-exove" fill="#FFFFFF">
            <path d="M22.33,7.54 C23.307544,7.54 24.1,6.74754401 24.1,5.77 C24.1,4.79245599 23.307544,4 22.33,4 L11.77,4 C10.792456,4 10,4.79245599 10,5.77 L10,20.17 C10,21.147544 10.792456,21.94 11.77,21.94 L22.33,21.94 C23.307544,21.94 24.1,21.147544 24.1,20.17 C24.1,19.192456 23.307544,18.4 22.33,18.4 L13.54,18.4 L13.54,14.74 L20.63,14.74 C21.607544,14.74 22.4,13.947544 22.4,12.97 C22.4,11.992456 21.607544,11.2 20.63,11.2 L13.54,11.2 L13.54,7.55 L22.33,7.54 Z" id="Shape"></path>
            <path d="M93.33,18.39 L84.54,18.39 L84.54,14.73 L91.63,14.73 C92.607544,14.73 93.4,13.937544 93.4,12.96 C93.4,11.982456 92.607544,11.19 91.63,11.19 L84.54,11.19 L84.54,7.54 L93.33,7.54 C94.307544,7.54 95.1,6.74754401 95.1,5.77 C95.1,4.79245599 94.307544,4 93.33,4 L82.77,4 C81.792456,4 81,4.79245599 81,5.77 L81,20.17 C81,21.147544 81.792456,21.94 82.77,21.94 L93.33,21.94 C94.307544,21.94 95.1,21.147544 95.1,20.17 C95.1,19.192456 94.307544,18.4 93.33,18.4" id="Shape"></path>
            <path d="M36.61,12.8614319 L42.33,7.0114319 C42.7730093,6.55949093 42.9412592,5.90553758 42.7713715,5.29590976 C42.6014838,4.68628194 42.1192685,4.21359661 41.5063715,4.05590976 C40.8934745,3.89822291 40.2430093,4.07949093 39.8,4.5314319 L34.18,10.2814319 L28.79,4.5614319 C28.3559223,4.10055929 27.7089454,3.90627313 27.0927791,4.05175913 C26.4766129,4.19724513 25.9848677,4.66040052 25.8027791,5.26675913 C25.6206906,5.87311774 25.7759223,6.53055929 26.21,6.9914319 L31.7,12.8214319 L25.7,18.9414319 C25.2569904,19.3933728 25.0887403,20.0473263 25.2586279,20.6569543 C25.4285156,21.2665823 25.910731,21.7392678 26.5236282,21.8969546 C27.1365254,22.0546414 27.7869907,21.8733732 28.23,21.4214319 L34.11,15.4214319 L39.76,21.4214319 C40.1940777,21.8823045 40.8410546,22.0765907 41.4572209,21.9311047 C42.0733871,21.7856187 42.5651323,21.3224633 42.7472209,20.7161047 C42.9293094,20.1097461 42.7740777,19.4523045 42.34,18.9914319 L36.61,12.8614319 Z" id="Shape"></path>
            <path d="M51.61,18.85 C48.4895912,18.85 45.96,16.3204088 45.96,13.2 C45.96,10.0795912 48.4895912,7.55 51.61,7.55 C54.7304088,7.55 57.26,10.0795912 57.26,13.2 C57.2544958,16.3181261 54.7281261,18.8444958 51.61,18.85 M51.61,4 C46.5371109,4.00552302 42.428165,8.1204379 42.4300061,13.1933297 C42.4318471,18.2662215 46.5437785,22.3781529 51.6166703,22.3799939 C56.6895621,22.381835 60.804477,18.2728891 60.81,13.2 C60.8044886,8.12126494 56.6887351,4.00551138 51.61,4" id="Shape"></path>
            <path d="M78.07,4.25386208 C77.6536733,4.03604531 77.1678241,3.99270266 76.7195156,4.13338524 C76.2712071,4.27406782 75.8972319,4.58722985 75.68,5.00386208 L69.68,16.4138621 L63.68,4.99386208 C63.3969329,4.41370026 62.8204665,4.03365201 62.1757026,4.00212058 C61.5309387,3.97058915 60.9201402,4.29257559 60.5818149,4.84234894 C60.2434896,5.39212229 60.2312977,6.08248556 60.55,6.64386208 L68.16,21.0438621 L68.16,21.0438621 L68.28,21.2338621 L68.28,21.2338621 L68.4,21.3738621 L68.4,21.3738621 L68.56,21.5138621 L68.56,21.5138621 L68.69,21.6038621 L68.76,21.6038621 L68.76,21.6038621 L68.83,21.6038621 L68.92,21.6038621 L69.06,21.6038621 L69.13,21.6038621 L69.3,21.6038621 L69.86,21.6038621 L70.02,21.6038621 L70.1,21.6038621 L70.23,21.6038621 L70.32,21.6038621 L70.39,21.6038621 L70.39,21.6038621 L70.45,21.6038621 L70.58,21.5138621 L70.58,21.5138621 L70.74,21.3738621 L70.74,21.3738621 L70.86,21.2338621 L70.86,21.2338621 C70.9043498,21.1733828 70.9444462,21.1098968 70.98,21.0438621 L70.98,21.0438621 L78.51,6.64386208 C78.7278168,6.22753536 78.7711594,5.74168621 78.6304768,5.29337772 C78.4897943,4.84506923 78.1766322,4.47109394 77.76,4.25386208" id="Shape"></path>
        </g>
    </g>
</svg>

<svg width="106" height="26" viewBox="0 0 106 26" xmlns="http://www.w3.org/2000/svg"><title>logo-exove</title><g fill="#FFF" fill-rule="evenodd"><path d="M22.33 7.54a1.77 1.77 0 0 0 0-3.54H11.77A1.77 1.77 0 0 0 10 5.77v14.4c0 .978.792 1.77 1.77 1.77h10.56a1.77 1.77 0 0 0 0-3.54h-8.79v-3.66h7.09a1.77 1.77 0 0 0 0-3.54h-7.09V7.55l8.79-.01zM93.33 18.39h-8.79v-3.66h7.09a1.77 1.77 0 0 0 0-3.54h-7.09V7.54h8.79a1.77 1.77 0 0 0 0-3.54H82.77A1.77 1.77 0 0 0 81 5.77v14.4c0 .978.792 1.77 1.77 1.77h10.56a1.77 1.77 0 0 0 0-3.54M36.61 12.861l5.72-5.85a1.771 1.771 0 0 0-2.53-2.48l-5.62 5.75-5.39-5.72a1.772 1.772 0 0 0-2.58 2.43l5.49 5.83-6 6.12a1.771 1.771 0 1 0 2.53 2.48l5.88-6 5.65 6a1.772 1.772 0 1 0 2.58-2.43l-5.73-6.13z"/><path d="M51.61 18.85a5.65 5.65 0 1 1 5.65-5.65 5.66 5.66 0 0 1-5.65 5.65m0-14.85a9.19 9.19 0 1 0 9.2 9.2 9.21 9.21 0 0 0-9.2-9.2M78.07 4.254a1.77 1.77 0 0 0-2.39.75l-6 11.41-6-11.42a1.77 1.77 0 1 0-3.13 1.65l7.61 14.4.12.19.12.14.16.14.13.09H70.45l.13-.09.16-.14.12-.14a1.62 1.62 0 0 0 .12-.19l7.53-14.4a1.77 1.77 0 0 0-.75-2.39"/></g></svg>
